src/icons/icon_mvp.svg

<svg height="75" viewBox="0 0 75 75" width="75" xmlns="http://www.w3.org/2000/svg"><g fill="none" fill-rule="evenodd"><rect fill="#fff" fill-rule="evenodd" height="75" rx="37.5" width="75"/><rect height="74" rx="37" stroke="#9b9b9b" width="74" x=".5" y=".5"/><g fill-rule="nonzero" stroke="#000"><path d="m57.3593768 44.4738538c-.8510548.7532393-2.0614438.4236971-2.0614438-1.0451196v-3.5308095c0-1.0639506-.8794233-1.9395914-1.9479699-1.9395914h-2.4869712c.283685.574345.4349836 1.1957675.4349836 1.81719 0 2.1749786-1.7021096 3.8226897-4.0472383 3.9168446h-.0756493-.0756493c-2.3451287-.0941549-4.0472383-1.741866-4.0472383-3.9168446 0-.630838.1512986-1.2522604.4349835-1.81719h-2.5909889-.0094562-.0378247c-1.0496342 0-1.9101451.8473943-1.9101451 1.9019294v3.5684715c0 1.4688167-1.2293014 1.7889434-2.0803562 1.0451196-1.4089684-1.2334295-3.5555177-.574345-3.6500794 1.6759575.0945617 2.2503026 2.241111 2.909387 3.6406233 1.6759576.8510547-.7532394 2.0898123-.4236971 2.0898123 1.0451196v3.4931475c0 1.0451196.8510547 1.9019294 1.9101451 1.9019294h3.5555178c1.4751616 0 1.7966712 1.2334294 1.0496342 2.0808237-1.2387575 1.4029083-.576826 3.559056 1.6831972 3.6532109 2.2600233-.0941549 2.9219548-2.2503026 1.6831973-3.6532109-.7564932-.8473943-.4255274-2.0902392 1.0496342-2.0902392h3.5366054c1.0496343 0 1.9101452-.8473943 1.9101452-1.9019294v-3.4931475c0-1.4688167 1.2009329-1.7889435 2.0519876-1.0451196 1.3900562 1.2334295 3.5366055.574345 3.6311671-1.6665421-.0945616-2.2503025-2.2316548-2.909387-3.6406232-1.6759575z"/><path d="m57.348349 26.1795395c-.8470325.7564932-2.0893467.4255274-2.0893467-1.0496342v-3.5176931c0-1.0496342-.8470325-1.9101452-1.9011173-1.9101452h-3.491656c-1.4681896 0-1.7881796-1.2009328-1.0446733-2.0519876 1.2329027-1.4089685.5740997-3.5555178-1.675242-3.6500794-2.2493417.0945616-2.9081448 2.2316548-1.675242 3.6406232.7529178.8510548.4235163 2.0614438-1.0446733 2.0614438h-3.5293019c-1.0634963 0-1.9387632.8794233-1.9387632 1.9479699v2.4869712c.5740998-.283685 1.1952569-.4349836 1.8164141-.4349836 2.1834614 0 3.8304689 1.7021096 3.9245837 4.0472383v.0756493.0756493c-.0941148 2.3451287-1.7411223 4.0472383-3.9151723 4.0472383-.6305686 0-1.2517257-.1512986-1.816414-.4349835v2.5909889.0094562.0378247c0 1.0496342.8470325 1.9101451 1.9011173 1.9101451h3.5669477c1.4681896 0 1.7881797 1.2293014 1.0446734 2.0803562-1.2329028 1.4089684-.5740998 3.5555177 1.675242 3.6500794 2.2493417-.0945617 2.9081447-2.241111 1.6752419-3.6406233-.7529177-.8510547-.4235162-2.0898123 1.0446734-2.0898123h3.491656c1.0446733 0 1.9011172-.8510547 1.9011172-1.9101451v-3.5555178c0-1.4751616 1.2329028-1.7966712 2.0799353-1.0496342 1.4023093 1.2387575 3.5575363.576826 3.651651-1.6831972-.0941147-2.2600233-2.2493417-2.9219548-3.651651-1.6831973z"/><path d="m35.1397373 37.9387689h-3.5684715c-1.4688167 0-1.7889434-1.2293014-1.0451196-2.0803562 1.2334295-1.4089684.574345-3.5555177-1.6759575-3.6500794-2.2503026.0945617-2.909387 2.241111-1.6759576 3.6406233.7532394.8510547.4236971 2.0898123-1.0451196 2.0898123h-3.4931475c-1.0451196 0-1.9019294.8510547-1.9019294 1.9101451v3.5555178c0 1.4751616-1.2334294 1.7966712-2.0808237 1.0496342-1.4029083-1.2387575-3.559056-.576826-3.6532109 1.6831972.0847394 2.241111 2.2503026 2.9030425 3.6437954 1.6642849.8473943-.7564931 2.0902392-.4255273 2.0902392 1.0496343v3.5366054c0 1.0496342.8473943 1.9101452 1.9019294 1.9101452h3.4931475c1.4688167 0 1.7889435 1.2009328 1.0451196 2.0519876-1.2334294 1.4089685-.574345 3.5555178 1.6759576 3.6500794 2.2503025-.0945616 2.909387-2.2316548 1.6759575-3.6406232-.7532393-.8510548-.4236971-2.0614438 1.0451196-2.0614438h3.5308095c1.0639506 0 1.9395914-.8794233 1.9395914-1.9479699v-2.4869712c-.574345.283685-1.1957675.4349836-1.81719.4349836-2.1749786 0-3.8226897-1.7021096-3.9168446-4.0472383v-.0756493-.0756493c.0941549-2.3451287 1.741866-4.0472383 3.9168446-4.0472383.630838 0 1.2522604.1512986 1.81719.4349835v-2.5909889-.0094562-.0378247c0-1.0496342-.8473943-1.9101451-1.9019294-1.9101451z"/><path d="m39.1510434 26.1700142c-.8510547.7535613-2.0898123.4238783-2.0898123-1.0455662v-3.4852208c0-1.0455662-.8510547-1.9027422-1.9101451-1.9027422h-3.5555178c-1.4751616 0-1.7966712-1.2339565-1.0496342-2.0817129 1.2387575-1.4035079.576826-3.5605769-1.6831972-3.6547721-2.2600233.0941952-2.9219548 2.2512642-1.6831973 3.6547721.7564932.8477564.4255274 2.0911325-1.0496342 2.0911325h-3.5176931c-1.0496342 0-1.9101452.8477564-1.9101452 1.9027421v3.4946403c0 1.4694445-1.2009328 1.789708-2.0519876 1.0455663-1.4089685-1.2339566-3.5555178-.5745905-3.6500794 1.6766738.0945616 2.2324252 2.2316548 2.8917913 3.6406232 1.6578347.8510548-.7535612 2.0614438-.4238782 2.0614438 1.0455663v3.5323183c0 1.0644053.8794233 1.9404203 1.9479699 1.9404203h2.4869712c-.283685-.5745905-.4349836-1.1962785-.4349836-1.8179666 0-2.1759081 1.7021096-3.8243233 4.0472383-3.9185185h.0756493.0756493c2.3451287.0941952 4.0472383 1.7426104 4.0472383 3.9185185 0 .6311076-.1512986 1.2527956-.4349835 1.8179666h2.5909889.0094562.0378247c1.0496342 0 1.9101451-.8477564 1.9101451-1.9027422v-3.5699964c0-1.4694445 1.2293014-1.789708 2.0803562-1.0455663 1.4089684 1.2339566 3.5555177.5745905 3.6500794-1.6766738-.0945617-2.2512642-2.241111-2.9106303-3.6406233-1.6766738z"/></g></g></svg>

<?xml version="1.0" encoding="UTF-8"?>
<svg width="75px" height="75px" viewBox="0 0 75 75" version="1.1" xmlns="http://www.w3.org/2000/svg" xmlns:xlink="http://www.w3.org/1999/xlink">
    <!-- Generator: sketchtool 46.2 (44496) - http://www.bohemiancoding.com/sketch -->
    <title>01F4B4AD-8AE7-4B1E-9195-BA0260600828</title>
    <desc>Created with sketchtool.</desc>
    <defs>
        <rect id="path-1" x="0" y="0" width="75" height="75" rx="37.5"></rect>
    </defs>
    <g id="Symbols" stroke="none" stroke-width="1" fill="none" fill-rule="evenodd">
        <g id="icon/-mvp">
            <g id="icon_mvp">
                <g id="Rectangle-3">
                    <use fill="#FFFFFF" fill-rule="evenodd" xlink:href="#path-1"></use>
                    <rect stroke="#9B9B9B" stroke-width="1" x="0.5" y="0.5" width="74" height="74" rx="37"></rect>
                </g>
                <path d="M57.3593768,44.4738538 C56.508322,45.2270931 55.297933,44.8975509 55.297933,43.4287342 L55.297933,39.8979247 C55.297933,38.8339741 54.4185097,37.9583333 53.3499631,37.9583333 L50.8629919,37.9583333 C51.1466769,38.5326783 51.2979755,39.1541008 51.2979755,39.7755233 C51.2979755,41.9505019 49.5958659,43.598213 47.2507372,43.6923679 L47.1750879,43.6923679 L47.0994386,43.6923679 C44.7543099,43.598213 43.0522003,41.9505019 43.0522003,39.7755233 C43.0522003,39.1446853 43.2034989,38.5232629 43.4871838,37.9583333 L40.8961949,37.9583333 L40.8867387,37.9583333 L40.848914,37.9583333 C39.7992798,37.9583333 38.9387689,38.8057276 38.9387689,39.8602627 L38.9387689,43.4287342 C38.9387689,44.8975509 37.7094675,45.2176776 36.8584127,44.4738538 C35.4494443,43.2404243 33.302895,43.8995088 33.2083333,46.1498113 C33.302895,48.4001139 35.4494443,49.0591983 36.8489566,47.8257689 C37.7000113,47.0725295 38.9387689,47.4020718 38.9387689,48.8708885 L38.9387689,52.364036 C38.9387689,53.4091556 39.7898236,54.2659654 40.848914,54.2659654 L44.4044318,54.2659654 C45.8795934,54.2659654 46.201103,55.4993948 45.454066,56.3467891 C44.2153085,57.7496974 44.87724,59.9058451 47.1372632,60 C49.3972865,59.9058451 50.059218,57.7496974 48.8204605,56.3467891 C48.0639673,55.4993948 48.3949331,54.2565499 49.8700947,54.2565499 L53.4067001,54.2565499 C54.4563344,54.2565499 55.3168453,53.4091556 55.3168453,52.3546205 L55.3168453,48.861473 C55.3168453,47.3926563 56.5177782,47.0725295 57.3688329,47.8163534 C58.7588891,49.0497829 60.9054384,48.3906984 61,46.1498113 C60.9054384,43.8995088 58.7683452,43.2404243 57.3593768,44.4738538 Z" id="Shape" stroke="#000000" fill-rule="nonzero"></path>
                <path d="M57.348349,26.1795395 C56.5013165,26.9360327 55.2590023,26.6050669 55.2590023,25.1299053 L55.2590023,21.6122122 C55.2590023,20.562578 54.4119698,19.702067 53.357885,19.702067 L49.866229,19.702067 C48.3980394,19.702067 48.0780494,18.5011342 48.8215557,17.6500794 C50.0544584,16.2411109 49.3956554,14.0945616 47.1463137,14 C44.896972,14.0945616 44.2381689,16.2316548 45.4710717,17.6406232 C46.2239895,18.491678 45.894588,19.702067 44.4263984,19.702067 L40.8970965,19.702067 C39.8336002,19.702067 38.9583333,20.5814903 38.9583333,21.6500369 L38.9583333,24.1370081 C39.5324331,23.8533231 40.1535902,23.7020245 40.7747474,23.7020245 C42.9582088,23.7020245 44.6052163,25.4041341 44.6993311,27.7492628 L44.6993311,27.8249121 L44.6993311,27.9005614 C44.6052163,30.2456901 42.9582088,31.9477997 40.7841588,31.9477997 C40.1535902,31.9477997 39.5324331,31.7965011 38.9677448,31.5128162 L38.9677448,34.1038051 L38.9677448,34.1132613 L38.9677448,34.151086 C38.9677448,35.2007202 39.8147773,36.0612311 40.8688621,36.0612311 L44.4358098,36.0612311 C45.9039994,36.0612311 46.2239895,37.2905325 45.4804832,38.1415873 C44.2475804,39.5505557 44.9063834,41.697105 47.1557252,41.7916667 C49.4050669,41.697105 50.0638699,39.5505557 48.8309671,38.1510434 C48.0780494,37.2999887 48.4074509,36.0612311 49.8756405,36.0612311 L53.3672965,36.0612311 C54.4119698,36.0612311 55.2684137,35.2101764 55.2684137,34.151086 L55.2684137,30.5955682 C55.2684137,29.1204066 56.5013165,28.798897 57.348349,29.545934 C58.7506583,30.7846915 60.9058853,30.12276 61,27.8627368 C60.9058853,25.6027135 58.7506583,24.940782 57.348349,26.1795395 Z" id="Shape" stroke="#000000" fill-rule="nonzero"></path>
                <path d="M35.1397373,37.9387689 L31.5712658,37.9387689 C30.1024491,37.9387689 29.7823224,36.7094675 30.5261462,35.8584127 C31.7595757,34.4494443 31.1004912,32.302895 28.8501887,32.2083333 C26.5998861,32.302895 25.9408017,34.4494443 27.1742311,35.8489566 C27.9274705,36.7000113 27.5979282,37.9387689 26.1291115,37.9387689 L22.635964,37.9387689 C21.5908444,37.9387689 20.7340346,38.7898236 20.7340346,39.848914 L20.7340346,43.4044318 C20.7340346,44.8795934 19.5006052,45.201103 18.6532109,44.454066 C17.2503026,43.2153085 15.0941549,43.87724 15,46.1372632 C15.0847394,48.3783742 17.2503026,49.0403057 18.6437954,47.8015481 C19.4911897,47.045055 20.7340346,47.3760208 20.7340346,48.8511824 L20.7340346,52.3877878 C20.7340346,53.437422 21.5814289,54.297933 22.635964,54.297933 L26.1291115,54.297933 C27.5979282,54.297933 27.918055,55.4988658 27.1742311,56.3499206 C25.9408017,57.7588891 26.5998861,59.9054384 28.8501887,60 C31.1004912,59.9054384 31.7595757,57.7683452 30.5261462,56.3593768 C29.7729069,55.508322 30.1024491,54.297933 31.5712658,54.297933 L35.1020753,54.297933 C36.1660259,54.297933 37.0416667,53.4185097 37.0416667,52.3499631 L37.0416667,49.8629919 C36.4673217,50.1466769 35.8458992,50.2979755 35.2244767,50.2979755 C33.0494981,50.2979755 31.401787,48.5958659 31.3076321,46.2507372 L31.3076321,46.1750879 L31.3076321,46.0994386 C31.401787,43.7543099 33.0494981,42.0522003 35.2244767,42.0522003 C35.8553147,42.0522003 36.4767371,42.2034989 37.0416667,42.4871838 L37.0416667,39.8961949 L37.0416667,39.8867387 L37.0416667,39.848914 C37.0416667,38.7992798 36.1942724,37.9387689 35.1397373,37.9387689 Z" id="Shape" stroke="#000000" fill-rule="nonzero"></path>
                <path d="M39.1510434,26.1700142 C38.2999887,26.9235755 37.0612311,26.5938925 37.0612311,25.124448 L37.0612311,21.6392272 C37.0612311,20.593661 36.2101764,19.736485 35.151086,19.736485 L31.5955682,19.736485 C30.1204066,19.736485 29.798897,18.5025285 30.545934,17.6547721 C31.7846915,16.2512642 31.12276,14.0941952 28.8627368,14 C26.6027135,14.0941952 25.940782,16.2512642 27.1795395,17.6547721 C27.9360327,18.5025285 27.6050669,19.7459046 26.1299053,19.7459046 L22.6122122,19.7459046 C21.562578,19.7459046 20.702067,20.593661 20.702067,21.6486467 L20.702067,25.143287 C20.702067,26.6127315 19.5011342,26.932995 18.6500794,26.1888533 C17.2411109,24.9548967 15.0945616,25.6142628 15,27.8655271 C15.0945616,30.0979523 17.2316548,30.7573184 18.6406232,29.5233618 C19.491678,28.7698006 20.702067,29.0994836 20.702067,30.5689281 L20.702067,34.1012464 C20.702067,35.1656517 21.5814903,36.0416667 22.6500369,36.0416667 L25.1370081,36.0416667 C24.8533231,35.4670762 24.7020245,34.8453882 24.7020245,34.2237001 C24.7020245,32.047792 26.4041341,30.3993768 28.7492628,30.3051816 L28.8249121,30.3051816 L28.9005614,30.3051816 C31.2456901,30.3993768 32.9477997,32.047792 32.9477997,34.2237001 C32.9477997,34.8548077 32.7965011,35.4764957 32.5128162,36.0416667 L35.1038051,36.0416667 L35.1132613,36.0416667 L35.151086,36.0416667 C36.2007202,36.0416667 37.0612311,35.1939103 37.0612311,34.1389245 L37.0612311,30.5689281 C37.0612311,29.0994836 38.2905325,28.7792201 39.1415873,29.5233618 C40.5505557,30.7573184 42.697105,30.0979523 42.7916667,27.846688 C42.697105,25.5954238 40.5505557,24.9360577 39.1510434,26.1700142 Z" id="Shape" stroke="#000000" fill-rule="nonzero"></path>
            </g>
        </g>
    </g>
</svg>
